flaticon/casino-gambling/poker-46.svg

<svg xmlns="http://www.w3.org/2000/svg" width="32" height="32" viewBox="0 0 24 24">
    <path d="M 19.601562 0 L 4.398438 0 C 3.71875 0 3.199219 0.519531 3.199219 1.199219 L 3.199219 22.800781 C 3.199219 23.480469 3.71875 24 4.398438 24 L 19.601562 24 C 20.28125 24 20.800781 23.480469 20.800781 22.800781 L 20.800781 1.199219 C 20.800781 0.519531 20.28125 0 19.601562 0 Z M 20 22.800781 C 20 23.039062 19.839844 23.199219 19.601562 23.199219 L 4.398438 23.199219 C 4.160156 23.199219 4 23.039062 4 22.800781 L 4 1.199219 C 4 0.960938 4.160156 0.800781 4.398438 0.800781 L 19.601562 0.800781 C 19.839844 0.800781 20 0.960938 20 1.199219 Z M 20 22.800781"/>
    <path d="M6.679688 14.398438L12 21.039062 17.320312 14.398438 12 7.761719zM12 19.761719L7.71875 14.398438 12 9.039062 16.28125 14.398438zM5.917969 4.570312L7.679688 7.039062C7.761719 7.160156 7.878906 7.199219 8 7.199219 8.078125 7.199219 8.160156 7.160156 8.238281 7.121094 8.398438 7 8.441406 6.71875 8.320312 6.558594L6.453125 3.945312 7.878906 2.28125C8.039062 2.121094 8 1.878906 7.839844 1.71875 7.679688 1.558594 7.441406 1.601562 7.28125 1.761719L5.601562 3.71875 5.601562 2C5.601562 1.761719 5.441406 1.601562 5.199219 1.601562 4.960938 1.601562 4.800781 1.761719 4.800781 2L4.800781 4.683594C4.769531 4.761719 4.773438 4.847656 4.800781 4.929688L4.800781 6.800781C4.800781 7.039062 4.960938 7.199219 5.199219 7.199219 5.441406 7.199219 5.601562 7.039062 5.601562 6.800781L5.601562 4.941406zM5.917969 4.570312"/>
</svg>

<svg xmlns="http://www.w3.org/2000/svg" width="32" height="32" viewBox="0 0 24 24">
    <path d="M19.602 0H4.398C3.718 0 3.2.52 3.2 1.2v21.6c0 .68.52 1.2 1.2 1.2h15.203c.68 0 1.199-.52 1.199-1.2V1.2c0-.68-.52-1.2-1.2-1.2zM20 22.8c0 .24-.16.4-.398.4H4.398c-.238 0-.398-.16-.398-.4V1.2c0-.24.16-.4.398-.4h15.204c.238 0 .398.16.398.4zm0 0"/>
    <path d="M6.68 14.398L12 21.04l5.32-6.64L12 7.761zM12 19.762l-4.281-5.364L12 9.04l4.281 5.36zm0 0M5.918 4.57L7.68 7.04c.082.12.199.16.32.16a.57.57 0 0 0 .238-.079c.16-.121.203-.402.082-.562L6.453 3.945 7.88 2.281c.16-.16.121-.402-.04-.562-.16-.16-.398-.117-.558.043l-1.68 1.957V2c0-.238-.16-.398-.402-.398-.238 0-.398.16-.398.398v2.684a.355.355 0 0 0 0 .246V6.8c0 .24.16.4.398.4.242 0 .403-.16.403-.4V4.942zm0 0"/>
</svg>
